flaticon/household/chest-of-drawers.svg

<svg xmlns="http://www.w3.org/2000/svg" width="32" height="32" viewBox="0 0 24 24">
    <path d="M 0 0 L 0 24 L 2 24 L 2 23.199219 L 22 23.199219 L 22 24 L 24 24 L 24 0 Z M 23.199219 23.199219 L 22.800781 23.199219 L 22.800781 22.398438 L 1.199219 22.398438 L 1.199219 23.199219 L 0.800781 23.199219 L 0.800781 0.800781 L 23.199219 0.800781 Z M 23.199219 23.199219"/>
    <path d="M 22.800781 18 L 22.800781 1.199219 L 1.199219 1.199219 L 1.199219 22 L 22.800781 22 Z M 2 2 L 22 2 L 22 5.199219 L 2 5.199219 Z M 2 6 L 22 6 L 22 9.199219 L 2 9.199219 Z M 2 10 L 22 10 L 22 13.199219 L 2 13.199219 Z M 2 14 L 22 14 L 22 17.199219 L 2 17.199219 Z M 22 21.199219 L 2 21.199219 L 2 18 L 22 18 Z M 22 21.199219"/>
    <path d="M12.800781 11.199219L11.199219 11.199219C10.980469 11.199219 10.800781 11.378906 10.800781 11.601562 10.800781 11.820312 10.980469 12 11.199219 12L12.800781 12C13.019531 12 13.199219 11.820312 13.199219 11.601562 13.199219 11.378906 13.019531 11.199219 12.800781 11.199219zM12.800781 7.199219L11.199219 7.199219C10.980469 7.199219 10.800781 7.378906 10.800781 7.601562 10.800781 7.820312 10.980469 8 11.199219 8L12.800781 8C13.019531 8 13.199219 7.820312 13.199219 7.601562 13.199219 7.378906 13.019531 7.199219 12.800781 7.199219zM12.800781 3.199219L11.199219 3.199219C10.980469 3.199219 10.800781 3.378906 10.800781 3.601562 10.800781 3.820312 10.980469 4 11.199219 4L12.800781 4C13.019531 4 13.199219 3.820312 13.199219 3.601562 13.199219 3.378906 13.019531 3.199219 12.800781 3.199219zM12.800781 15.199219L11.199219 15.199219C10.980469 15.199219 10.800781 15.378906 10.800781 15.601562 10.800781 15.820312 10.980469 16 11.199219 16L12.800781 16C13.019531 16 13.199219 15.820312 13.199219 15.601562 13.199219 15.378906 13.019531 15.199219 12.800781 15.199219zM11.199219 20L12.800781 20C13.019531 20 13.199219 19.820312 13.199219 19.601562 13.199219 19.378906 13.019531 19.199219 12.800781 19.199219L11.199219 19.199219C10.980469 19.199219 10.800781 19.378906 10.800781 19.601562 10.800781 19.820312 10.980469 20 11.199219 20zM11.199219 20"/>
</svg>

<svg xmlns="http://www.w3.org/2000/svg" width="32" height="32" viewBox="0 0 24 24">
    <path d="M0 0v24h2v-.8h20v.8h2V0zm23.2 23.2h-.4v-.802H1.2v.801H.8V.801h22.4zm0 0"/>
    <path d="M22.8 18V1.2H1.2V22h21.6zM2 2h20v3.2H2zm0 4h20v3.2H2zm0 4h20v3.2H2zm0 4h20v3.2H2zm20 7.2H2V18h20zm0 0"/>
    <path d="M12.8 11.2h-1.6a.401.401 0 0 0 0 .8h1.6a.4.4 0 0 0 0-.8zm0 0M12.8 7.2h-1.6a.401.401 0 0 0 0 .8h1.6a.4.4 0 0 0 0-.8zm0 0M12.8 3.2h-1.6a.401.401 0 0 0 0 .8h1.6a.4.4 0 0 0 0-.8zm0 0M12.8 15.2h-1.6a.401.401 0 0 0 0 .8h1.6a.4.4 0 0 0 0-.8zm0 0M11.2 20h1.6a.4.4 0 0 0 0-.8h-1.6a.401.401 0 0 0 0 .8zm0 0"/>
</svg>
